src/24/actions/text-unflow.svg

<svg xmlns="http://www.w3.org/2000/svg" viewBox="0 0 24 24">
  <defs id="defs3051">
    <style type="text/css" id="current-color-scheme">
      .ColorScheme-Text {
        color:#5d656b;
      }
      .ColorScheme-NegativeText {
        color:#da4453;
      }
      </style>
  </defs>
  <path 
     style="fill:currentColor;fill-opacity:1;stroke:none" 
     d="M 4 4 L 4 20 L 13 20 L 13 19 L 5 19 L 5 5 L 19 5 L 19 13 L 20 13 L 20 4 L 4 4 z M 6 6 L 6 7 L 18 7 L 18 6 L 6 6 z M 6 8 L 6 9 L 15 9 L 15 8 L 6 8 z M 6 11 L 6 12 L 18 12 L 18 11 L 6 11 z M 6 13 L 6 14 L 10 14 L 10 13 L 6 13 z M 6 16 L 6 17 L 13 17 L 13 16 L 6 16 z "
     class="ColorScheme-Text"/>
  <path
     style="fill:currentColor;fill-opacity:1;stroke:none" 
     d="M 14.980469 14 L 13.990234 14.990234 L 16 17 L 13.990234 19.009766 L 14.980469 20 L 16.990234 17.990234 L 19 20 L 19.990234 19.009766 L 17.980469 17 L 19.990234 14.990234 L 19 14 L 16.990234 16.009766 L 14.980469 14 z "
     class="ColorScheme-NegativeText"
     />
</svg>

<svg xmlns="http://www.w3.org/2000/svg" viewBox="0 0 24 24"><path d="M4 4v16h9v-1H5V5h14v8h1V4H4zm2 2v1h12V6H6zm0 2v1h9V8H6zm0 3v1h12v-1H6zm0 2v1h4v-1H6zm0 3v1h7v-1H6z" fill="currentColor" color="#5d656b"/><path d="M14.98 14l-.99.99L16 17l-2.01 2.01.99.99 2.01-2.01L19 20l.99-.99L17.98 17l2.01-2.01L19 14l-2.01 2.01L14.98 14z" fill="currentColor" color="#da4453"/></svg>
